X:126
T:No Moon At All
C:Don Steirnburg
N:From "The Swing Sessions" Transcribed by Gregory J. Thomas
L:1/8
Q:1/4=196
M:4/4
K:C
z8 | z8 | z8 | z8 | AF GA z4 | zA EA z4 | zA2^G A=G FA | GD zG z4 | zG z^F G=F EG | 
F^G, A,F z2 E2 | D8 | z8 | AF GA z4 | zA EA z4 | zA2^G A=G FA | GD zG z4 | zG z^F G=F EG | 
F^G, A,F z2 E2 | D8 | z8 | zD z2 ^FA3 | D2 ^FA4z | zB zd zg2B | z2 dg4z | zc z2 _BG zc | 
z2 _BG z2 FG | AA AA AA AA | z^c _BA z4 | AF GA z4 | zA EA z4 | zA2^G A=G FA | 
GD zG z4 | zG z^F G=F EG | F^G, A,F z2 E2 | D8 | z6 E/F/E/D/ | B,6 D2 | 
E2 F2 GA zd | z^c z=c ^cd c2 | c2 _B=B G2 F2 | zA _Bc BA GA | c^c a^g =g2 a2 | 
f2 ed ^c2 ed | z2 A2 E3A | d2 A2 f2 da | zf c'6 | z2 e'^d' =d'2 ^g2 | c'^g =gf gf3 | 
z2 c/d/c/A/ zc _BA | GA FE DC A,C | EC DF ED CE | DD4z (3FED | C2 zD F^F zA | 
zd e2 d2 _B=B | zG ED G2 (3Bea | d'b7/1 | (3gag (3^f^gf (3=f=gf e^d | eg e^d =dc AG | 
zA GA dc AG | AG FE z2 zF | D2 E2 Fz/4[AD]z/4[c3/2F3/2] | [BE]z/4[_B^D]z/4=Dz/4C3/2A,z/4C3/2 | 
D2 zE FE DC | B,F z6 | z3[G^C] [^GD][=GC] [^G2D2] | [_b3/2f3/2G3/2][a/^c/G/] z3[^c'3e3A3] | 
z[e'f] zf [d'2f2] zc' | zc' a2 z^g =gf | d4 A4 | 


